X:12479
T:Ou sont donc ces amants - bourree
C:traditionell
Z:abc transcription Simon Wascher
N:please mail errors to: simon.wascher@chello.at
M:2/4
L:1/8
K:Dm
D2 A2|AG AG/2F/2|E3/2F/2 GA|F2 E2|
D2 A2|AG AG/2F/2|E3/2F/2 GA|F2 E2:|
|:DF EF/2E/2|DF EF|G3/2F/2 ED|F2 E2|
DF EF/2E/2|DF EF|G3/2F/2 ED|FE D2:|
